public/images/logos/tailwind.svg

<svg width="28" height="28" viewBox="0 0 28 28" fill="none" xmlns="http://www.w3.org/2000/svg">
<g clip-path="url(#clip0_123_11)">
<path d="M13.9998 5.60571C10.2679 5.60571 7.93551 7.47117 7.00243 11.2017C8.40205 9.33629 10.0348 8.637 11.9006 9.10319C12.9653 9.36918 13.7261 10.1416 14.5686 10.9963C15.9405 12.3886 17.5285 13.9999 20.9972 13.9999C24.7289 13.9999 27.0616 12.1345 27.9943 8.40355C26.595 10.269 24.9623 10.9687 23.0961 10.5025C22.0318 10.2365 21.2709 9.46403 20.4285 8.60935C19.0565 7.21708 17.4683 5.60571 13.9998 5.60571ZM7.00243 13.9999C3.2708 13.9999 0.938102 15.8654 0.00537109 19.5963C1.40464 17.7309 3.03736 17.0312 4.90352 17.4978C5.96785 17.7641 6.72873 18.5362 7.57116 19.3905C8.94314 20.7828 10.5314 22.3945 13.9998 22.3945C17.7318 22.3945 20.0642 20.5291 20.9972 16.7981C19.5976 18.6636 17.9649 19.3632 16.0991 18.8967C15.0344 18.631 14.2735 17.8583 13.4311 17.0039C12.0591 15.6117 10.4712 13.9999 7.00243 13.9999Z" fill="#06B6D4"/>
</g>
<defs>
<clipPath id="clip0_123_11">
<rect width="28" height="16.7888" fill="white" transform="translate(0 5.60571)"/>
</clipPath>
</defs>
</svg>

<svg xmlns="http://www.w3.org/2000/svg" width="28" height="28" fill="none" xmlns:v="https://vecta.io/nano"><g clip-path="url(#A)"><path d="M14 5.606c-3.732 0-6.064 1.865-6.997 5.596 1.4-1.865 3.032-2.565 4.898-2.099 1.065.266 1.826 1.038 2.668 1.893C15.941 12.389 17.529 14 20.997 14c3.732 0 6.064-1.865 6.997-5.596-1.399 1.865-3.032 2.565-4.898 2.099-1.064-.266-1.825-1.038-2.668-1.893-1.372-1.392-2.96-3.004-6.429-3.004zM7.002 14C3.271 14 .938 15.865.005 19.596c1.399-1.865 3.032-2.565 4.898-2.098 1.064.266 1.825 1.038 2.668 1.893 1.372 1.392 2.96 3.004 6.429 3.004 3.732 0 6.064-1.865 6.997-5.596-1.4 1.865-3.032 2.565-4.898 2.099-1.065-.266-1.826-1.038-2.668-1.893C12.059 15.612 10.471 14 7.002 14z" fill="#06b6d4"/></g><defs><clipPath id="A"><path fill="#fff" transform="translate(0 5.606)" d="M0 0h28v16.789H0z"/></clipPath></defs></svg>
